assets/icons/qvision/ad_units.svg

<svg xmlns="http://www.w3.org/2000/svg" height="24" viewBox="0 0 24 24" width="24"><path d="M0 0h24v24H0z" fill="none"/><path d="M17 1H7c-1.1 0-2 .9-2 2v18c0 1.1.9 2 2 2h10c1.1 0 2-.9 2-2V3c0-1.1-.9-2-2-2zm0 18H7V5h10v14zM8 6h8v2H8z"/></svg>

<svg width="24" height="24" viewBox="0 0 24 24" fill="none" xmlns="http://www.w3.org/2000/svg">
<g clip-path="url(#clip0_147_2326)">
<path d="M17 1H7C5.9 1 5 1.9 5 3V21C5 22.1 5.9 23 7 23H17C18.1 23 19 22.1 19 21V3C19 1.9 18.1 1 17 1ZM17 19H7V5H17V19ZM8 6H16V8H8V6Z" fill="#323232"/>
</g>
<defs>
<clipPath id="clip0_147_2326">
<rect width="24" height="24" fill="white"/>
</clipPath>
</defs>
</svg>
